icons/columns-16.svg

<svg width="16" height="16" viewBox="0 0 16 16" fill="none" xmlns="http://www.w3.org/2000/svg">
<g clip-path="url(#clip0)">
<path fill-rule="evenodd" clip-rule="evenodd" d="M2.75 0C2.28587 0 1.84075 0.184374 1.51256 0.512563C1.18437 0.840752 1 1.28587 1 1.75L1 14.25C1 15.216 1.784 16 2.75 16H5.25C5.71413 16 6.15925 15.8156 6.48744 15.4874C6.81563 15.1592 7 14.7141 7 14.25L7 1.75C7 1.28587 6.81563 0.840752 6.48744 0.512563C6.15925 0.184375 5.71413 4.37114e-08 5.25 4.37114e-08L2.75 0ZM2.5 1.75C2.5 1.6837 2.52634 1.62011 2.57322 1.57322C2.62011 1.52634 2.6837 1.5 2.75 1.5L5.25 1.5C5.3163 1.5 5.37989 1.52634 5.42678 1.57322C5.47366 1.62011 5.5 1.6837 5.5 1.75L5.5 14.25C5.5 14.3163 5.47366 14.3799 5.42678 14.4268C5.37989 14.4737 5.3163 14.5 5.25 14.5H2.75C2.6837 14.5 2.62011 14.4737 2.57322 14.4268C2.52634 14.3799 2.5 14.3163 2.5 14.25L2.5 1.75ZM10.75 4.37114e-08C10.2859 4.37114e-08 9.84075 0.184375 9.51256 0.512563C9.18437 0.840752 9 1.28587 9 1.75L9 14.25C9 15.216 9.784 16 10.75 16H13.25C13.7141 16 14.1592 15.8156 14.4874 15.4874C14.8156 15.1592 15 14.7141 15 14.25L15 1.75C15 1.28587 14.8156 0.840752 14.4874 0.512563C14.1592 0.184375 13.7141 8.74228e-08 13.25 8.74228e-08L10.75 4.37114e-08ZM10.5 1.75C10.5 1.6837 10.5263 1.62011 10.5732 1.57322C10.6201 1.52634 10.6837 1.5 10.75 1.5L13.25 1.5C13.3163 1.5 13.3799 1.52634 13.4268 1.57322C13.4737 1.62011 13.5 1.6837 13.5 1.75L13.5 14.25C13.5 14.3163 13.4737 14.3799 13.4268 14.4268C13.3799 14.4737 13.3163 14.5 13.25 14.5H10.75C10.6837 14.5 10.6201 14.4737 10.5732 14.4268C10.5263 14.3799 10.5 14.3163 10.5 14.25L10.5 1.75Z" fill="black"/>
</g>
<defs>
<clipPath id="clip0">
<rect width="16" height="16" fill="white"/>
</clipPath>
</defs>
</svg>

<svg xmlns="http://www.w3.org/2000/svg" width="16" height="16" viewBox="0 0 16 16"><path fill-rule="evenodd" d="M2.75 0A1.75 1.75 0 001 1.75v12.5c0 .966.784 1.75 1.75 1.75h2.5A1.75 1.75 0 007 14.25V1.75A1.75 1.75 0 005.25 0h-2.5zM2.5 1.75a.25.25 0 01.25-.25h2.5a.25.25 0 01.25.25v12.5a.25.25 0 01-.25.25h-2.5a.25.25 0 01-.25-.25V1.75zM10.75 0A1.75 1.75 0 009 1.75v12.5c0 .966.784 1.75 1.75 1.75h2.5A1.75 1.75 0 0015 14.25V1.75A1.75 1.75 0 0013.25 0h-2.5zm-.25 1.75a.25.25 0 01.25-.25h2.5a.25.25 0 01.25.25v12.5a.25.25 0 01-.25.25h-2.5a.25.25 0 01-.25-.25V1.75z"/></svg>
